X: 281
M: 6/4
L: 1/4
K: C
E>FG GcE | FDD D2G | cec dBG | ADG E2G |\
E/F/GA ^FDG | AG^F G2 :: B | Bcd GAB | cde A2e |
fed edc | BA^G A2=G | AcE FGA | AdA B2e |\
edc BGc | GcB c2G | AFD dBG | AFG C2 :|

